X:266
T:Nine Points to Roguery
Z: id:dc-reel-246
M:C
L:1/8
K:D Major
FE|D2FD GEFE|DEFG ABAF|D2FD GEFA|BEE2 BEE2|!
D2FD GEFE|DEFG ABAF|D2FA GBAc|dedc d2:|!
AB|=c3A B3G|A3B AGFE|D2FD GEFA|BEE2 BEE2|!
=c3A B3G|Adcd fdAF|D2FA GBAc|dedc d2:|!
fe|d2fd gefe|defg abaf|d2fd gefa|bee2 bee2|!
d2fd gefe|defg abaf|dfaf gece|dedc d2:|!
AB|=c3A B3G|A3B AGFE|D2FD GEFA|BEE2 BEE2|!
=c3A B3G|Adcd fdAF|D2FA GBAc|dedc d2:|!